X: 27793
T: Morris On, The
R: polka
M: 2/4
K: Gmajor
|:z|gd de/f/|gd de/f/|gd dc|B2 G:|
|:A/B/|ce ed/c/|Bd dc/B/|AB cd|B2 G:|

